images/image-tel.svg

<svg width="10" height="15" viewBox="0 0 10 15" fill="none" xmlns="http://www.w3.org/2000/svg">
<path d="M8.5 0H1.5C0.672848 0 0 0.60854 0 1.35663V13.1141C0 13.8622 0.672848 14.4708 1.5 14.4708H8.5C9.32715 14.4708 10 13.8622 10 13.1141V1.35663C10 0.60854 9.32715 0 8.5 0ZM1.5 0.904423H8.5C8.77588 0.904423 9 1.10712 9 1.35663V10.8531H1V1.35663C1 1.10712 1.22412 0.904423 1.5 0.904423ZM8.5 13.5663H1.5C1.22412 13.5663 1 13.3636 1 13.1141V11.7575H9V13.1141C9 13.3636 8.77588 13.5663 8.5 13.5663Z" fill="#757575"/>
</svg>

<svg width="10" height="15" fill="none" xmlns="http://www.w3.org/2000/svg">
  <path d="M8.5 0h-7C.7 0 0 .6 0 1.4V13c0 .8.7 1.4 1.5 1.4h7c.8 0 1.5-.6 1.5-1.4V1.4C10 .6 9.3 0 8.5 0zm-7 .9h7c.3 0 .5.2.5.5v9.5H1V1.4c0-.3.2-.5.5-.5zm7 12.7h-7c-.3 0-.5-.2-.5-.5v-1.3h8V13c0 .3-.2.5-.5.5z" fill="#757575"/>
</svg>
